svg/LeftHanded/help.svg

<?xml version="1.0" encoding="UTF-8" standalone="no"?>
<!-- Created with Inkscape (http://www.inkscape.org/) -->

<svg
   xmlns:dc="http://purl.org/dc/elements/1.1/"
   xmlns:cc="http://creativecommons.org/ns#"
   xmlns:rdf="http://www.w3.org/1999/02/22-rdf-syntax-ns#"
   xmlns:svg="http://www.w3.org/2000/svg"
   xmlns="http://www.w3.org/2000/svg"
   xmlns:xlink="http://www.w3.org/1999/xlink"
   version="1.0"
   width="500"
   height="500"
   viewBox="0 0 1000 1000"
   id="page"
   xml:space="preserve"><metadata
     id="metadata12"><rdf:RDF><cc:Work
         rdf:about=""><dc:format>image/svg+xml</dc:format><dc:type
           rdf:resource="http://purl.org/dc/dcmitype/StillImage" /><dc:title></dc:title></cc:Work></rdf:RDF></metadata><defs
     id="defs38"><linearGradient
       id="linearGradient1312"><stop
         id="stop1314"
         style="stop-color:#999933;stop-opacity:1"
         offset="0" /><stop
         id="stop1316"
         style="stop-color:#966600;stop-opacity:1"
         offset="1" /></linearGradient><linearGradient
       x1="525.33698"
       y1="85.616997"
       x2="525.33698"
       y2="465.60999"
       id="linearGradient2185"
       xlink:href="#linearGradient1312"
       gradientUnits="userSpaceOnUse"
       gradientTransform="translate(-102.3354,111.5472)" /><linearGradient
       x1="689.34747"
       y1="9.8939447"
       x2="689.34747"
       y2="519.69983"
       id="linearGradient7569"
       xlink:href="#linearGradient3076"
       gradientUnits="userSpaceOnUse"
       gradientTransform="matrix(-1,0,0,1,1102.335,111.5471)" /><linearGradient
       id="linearGradient3076"><stop
         id="stop3078"
         style="stop-color:#999999;stop-opacity:1"
         offset="0" /><stop
         id="stop3080"
         style="stop-color:#555555;stop-opacity:1"
         offset="1" /></linearGradient><linearGradient
       x1="689.34747"
       y1="9.8939447"
       x2="689.34747"
       y2="519.69983"
       id="linearGradient3026"
       xlink:href="#linearGradient3076"
       gradientUnits="userSpaceOnUse"
       gradientTransform="matrix(-1,0,0,1,1102.335,111.5471)" /><linearGradient
       x1="689.34747"
       y1="9.8939447"
       x2="689.34747"
       y2="519.69983"
       id="linearGradient3026-3"
       xlink:href="#linearGradient3076-4"
       gradientUnits="userSpaceOnUse"
       gradientTransform="matrix(-1,0,0,1,881.99537,-478.21154)" /><linearGradient
       id="linearGradient3076-4"><stop
         id="stop3078-5"
         style="stop-color:#999999;stop-opacity:1"
         offset="0" /><stop
         id="stop3080-7"
         style="stop-color:#555555;stop-opacity:1"
         offset="1" /></linearGradient><linearGradient
       x1="525.33698"
       y1="85.616997"
       x2="525.33698"
       y2="465.60999"
       id="linearGradient2185-3"
       xlink:href="#linearGradient1312-9"
       gradientUnits="userSpaceOnUse"
       gradientTransform="translate(-322.67503,-478.21144)" /><linearGradient
       id="linearGradient1312-9"><stop
         id="stop1314-1"
         style="stop-color:#999933;stop-opacity:1"
         offset="0" /><stop
         id="stop1316-9"
         style="stop-color:#966600;stop-opacity:1"
         offset="1" /></linearGradient><linearGradient
       x1="525.33698"
       y1="85.616997"
       x2="525.33698"
       y2="465.60999"
       id="linearGradient3064"
       xlink:href="#linearGradient1312-9"
       gradientUnits="userSpaceOnUse"
       gradientTransform="translate(-102.3354,111.5472)" /><linearGradient
       x1="689.34747"
       y1="9.8939447"
       x2="689.34747"
       y2="519.69983"
       id="linearGradient3067"
       xlink:href="#linearGradient3076-4"
       gradientUnits="userSpaceOnUse"
       gradientTransform="matrix(-0.5,0,0,0.5,551.1675,55.77355)" /><filter
       x="-0.22030602"
       y="-0.26356068"
       width="1.440612"
       height="1.5271213"
       color-interpolation-filters="sRGB"
       id="filter3842"><feGaussianBlur
         id="feGaussianBlur3844"
         stdDeviation="26.896745" /></filter></defs><path
     d="m 500.9375,360.59375 c -15.74743,0.039 -90.65995,33.19812 -133.0625,64.78125 -16.32908,-16.61718 -39.08158,-26.90726 -64.21875,-26.90625 -49.7075,-0.003 -90.001,40.2935 -90,90 -5e-4,49.70448 40.2945,90.005 90,90 6.30285,3.2e-4 12.46913,-0.67373 18.40625,-1.90625 3.53699,17.41285 24.06685,31.61605 41.5625,28.53125 17.726,-3.1265 34.41825,-38.073 41.71875,-48.5 7.3005,-10.427 40.6485,-2.59325 58.375,-5.71875 35.452,-6.2525 50.08175,-182.48075 39.65625,-189.78125 -0.48872,-0.34221 -1.32154,-0.50277 -2.4375,-0.5 z"
     transform="matrix(2.4,0,0,2.4,-364.38939,-662.99)"
     id="path1431-1"
     style="opacity:0.15;fill:#111111;fill-opacity:1;stroke:none;filter:url(#filter3842)" /><g
     id="g3006"><path
       d="m 786.4095,132.44616 c -20.852,-14.601 -342.028,133.42001 -329.526,204.32601 6.252,35.454 43.781,92.808 29.182,113.661 -14.601,20.852 -68.83,76.108 -62.578,111.562 6.251,35.453 47.955,64.654 83.408,58.403 35.452,-6.253 68.83,-76.108 83.431,-96.962 14.601,-20.854 81.333,-5.201 116.786,-11.452 70.904,-12.505 100.148,-364.93701 79.297,-379.53801 z"
       id="path1431"
       style="opacity:0.75;fill:url(#linearGradient3026);fill-opacity:1;stroke:#000000;stroke-width:20;stroke-linecap:round;stroke-linejoin:round;stroke-miterlimit:3.13260007" /><path
       d="m 566.997,387.1652 c -0.004,99.406 -80.586,179.997 -180.001,179.992 -99.411,0.007 -179.995,-80.586 -179.994,-179.995 -0.002,-99.413 80.585,-180.004 180,-179.998 99.408,-0.004 180.004,80.58 179.995,180.001 z"
       id="path1439"
       style="opacity:0.75;fill:url(#linearGradient2185);fill-opacity:1;stroke:#000000;stroke-width:20;stroke-linecap:round;stroke-linejoin:round;stroke-miterlimit:3.13260007" /><path
       d="m 354.38583,496.25297 0,-30.38012 53.1031,0 0,30.38012 -53.1031,0 m 5.18078,-57.3391 0,-3.83173 c -9e-5,-11.95126 3.66963,-22.30607 11.00919,-31.06442 7.33934,-8.84933 19.6437,-17.83563 36.91313,-26.95892 l 15.11063,-7.93718 c 20.72298,-10.85643 31.08455,-21.5305 31.08474,-32.02229 -1.9e-4,-18.88481 -24.24914,-28.32725 -72.74692,-28.32748 -16.11812,2.3e-4 -32.66784,1.36868 -49.64924,4.10546 l 0,23.26404 -31.9482,0 0,-39.54888 c 29.21383,-5.29127 58.85943,-7.93695 88.93689,-7.93719 35.54582,2.4e-4 62.74494,3.83197 81.59744,11.49519 18.99601,7.66364 28.49411,18.7027 28.49434,33.11713 -2.3e-4,15.5095 -13.81566,30.38029 -41.44632,44.61226 l -21.37076,10.9478 c -12.37649,6.38633 -21.01113,12.54448 -25.90395,18.4744 -4.8931,5.93014 -7.33959,13.22868 -7.33944,21.8956 l 0,9.71621 -42.74153,0"
       id="flowRoot1441"
       transform="rotate(0,385,390)"
       style="opacity:0.75;fill:#000000;fill-opacity:1" /></g></svg>

<?xml version="1.0" encoding="UTF-8" standalone="no"?>
<!-- Created with Inkscape (http://www.inkscape.org/) -->
<svg
   xmlns:svg="http://www.w3.org/2000/svg"
   xmlns="http://www.w3.org/2000/svg"
   xmlns:xlink="http://www.w3.org/1999/xlink"
   version="1.0"
   width="500"
   height="500"
   viewBox="0 0 1000 1000"
   id="page"
   xml:space="preserve"><defs
     id="defs38"><linearGradient
       id="linearGradient1312"><stop
         id="stop1314"
         style="stop-color:#999933;stop-opacity:1"
         offset="0" /><stop
         id="stop1316"
         style="stop-color:#966600;stop-opacity:1"
         offset="1" /></linearGradient><linearGradient
       x1="525.33698"
       y1="85.616997"
       x2="525.33698"
       y2="465.60999"
       id="linearGradient2185"
       xlink:href="#linearGradient1312"
       gradientUnits="userSpaceOnUse"
       gradientTransform="translate(-102.3354,111.5472)" /></defs><path
     d="M 566.997,387.1652 C 566.993,486.5712 486.411,567.1622 386.996,567.1572 C 287.585,567.1642 207.001,486.5712 207.002,387.1622 C 207,287.7492 287.587,207.1582 387.002,207.1642 C 486.41,207.1602 567.006,287.7442 566.997,387.1652 z"
     id="path1439"
     style="fill:url(#linearGradient2185);fill-opacity:1;stroke:#000000;stroke-width:20;stroke-linecap:round;stroke-linejoin:round;stroke-miterlimit:3.13260007" /><path
     d="M 354.38583,496.25297 L 354.38583,465.87285 L 407.48893,465.87285 L 407.48893,496.25297 L 354.38583,496.25297 M 359.56661,438.91387 L 359.56661,435.08214 C 359.56652,423.13088 363.23624,412.77607 370.5758,404.01772 C 377.91514,395.16839 390.2195,386.18209 407.48893,377.0588 L 422.59956,369.12162 C 443.32254,358.26519 453.68411,347.59112 453.6843,337.09933 C 453.68411,318.21452 429.43516,308.77208 380.93738,308.77185 C 364.81926,308.77208 348.26954,310.14053 331.28814,312.87731 L 331.28814,336.14135 L 299.33994,336.14135 L 299.33994,296.59247 C 328.55377,291.3012 358.19937,288.65552 388.27683,288.65528 C 423.82265,288.65552 451.02177,292.48725 469.87427,300.15047 C 488.87028,307.81411 498.36838,318.85317 498.36861,333.2676 C 498.36838,348.7771 484.55295,363.64789 456.92229,377.87986 L 435.55153,388.82766 C 423.17504,395.21399 414.5404,401.37214 409.64758,407.30206 C 404.75448,413.2322 402.30799,420.53074 402.30814,429.19766 L 402.30814,438.91387 L 359.56661,438.91387"
     id="flowRoot1441"
     transform="rotate(0,385,390)"
     style="fill:#000000;fill-opacity:1" /></svg>
